build/images/fb-icons/callback.svg

<svg xmlns="http://www.w3.org/2000/svg" preserveAspectRatio="xMidYMid" width="21" height="19" viewBox="0 0 21 19"><defs><style>.cls-1{fill:#00b4ae;fill-rule:evenodd}</style></defs><path d="M20.125 13.003l-2.112 2.057a3.042 3.042 0 0 1-4.224 0 2.87 2.87 0 0 1-.454-.587l.982-.956c.047-.046.104-.072.159-.103.068.226.187.44.369.617.582.568 1.53.567 2.112 0l2.111-2.057a1.43 1.43 0 0 0 0-2.058 1.52 1.52 0 0 0-2.111 0l-.752.732a3.842 3.842 0 0 0-1.905-.202l1.601-1.559a3.042 3.042 0 0 1 4.224 0 2.859 2.859 0 0 1 0 4.116zm-3.16-9.183H1.536v10.347c0 .611.55 1.146 1.178 1.146h5.44l.026 1.495H1.964c-1.1 0-1.964-.841-1.964-1.91V1.91C0 .84.864 0 1.964 0h14.572c1.1 0 1.964.84 1.964 1.91v4.584h-1.535V3.82zM1.916 1.291c-.376 0-.627.243-.627.608s.251.609.627.609c.375 0 .626-.244.626-.609s-.251-.608-.626-.608zm2.137 0c-.376 0-.627.243-.627.608s.251.609.627.609.626-.244.626-.609-.25-.608-.626-.608zm2.137 0c-.376 0-.626.243-.626.608s.25.609.626.609.626-.244.626-.609-.25-.608-.626-.608zm6.543 10.683a3.042 3.042 0 0 1 4.224 0c.183.179.328.379.453.587l-.981.956c-.047.046-.104.071-.159.102a1.436 1.436 0 0 0-.369-.616 1.522 1.522 0 0 0-2.112 0l-2.112 2.057a1.432 1.432 0 0 0 0 2.059c.582.567 1.53.567 2.112 0l.751-.733a3.832 3.832 0 0 0 1.905.202l-1.6 1.559a3.042 3.042 0 0 1-4.224 0 2.859 2.859 0 0 1 0-4.116l2.112-2.057z" class="cls-1"/></svg>

<svg xmlns="http://www.w3.org/2000/svg" xmlns:xlink="http://www.w3.org/1999/xlink" preserveAspectRatio="xMidYMid" width="21" height="19" viewBox="0 0 21 19">
  <defs>
    <style>
      .cls-1 {
        fill: #00b4ae;
        fill-rule: evenodd;
      }
    </style>
  </defs>
  <path d="M20.125,13.003 L18.013,15.060 C16.847,16.197 14.955,16.197 13.789,15.060 C13.605,14.882 13.461,14.681 13.335,14.473 L14.317,13.517 C14.364,13.471 14.421,13.445 14.476,13.414 C14.544,13.640 14.663,13.854 14.845,14.031 C15.427,14.599 16.375,14.598 16.957,14.031 L19.068,11.974 C19.651,11.406 19.651,10.483 19.068,9.916 C18.486,9.348 17.539,9.348 16.957,9.916 L16.205,10.648 C15.596,10.417 14.940,10.355 14.300,10.446 L15.901,8.887 C17.067,7.750 18.958,7.750 20.125,8.887 C21.291,10.023 21.291,11.866 20.125,13.003 ZM16.965,3.820 L1.536,3.820 L1.536,14.167 C1.536,14.778 2.086,15.313 2.714,15.313 C2.714,15.313 4.809,15.313 8.154,15.313 L8.180,16.808 C4.827,16.808 1.964,16.808 1.964,16.808 C0.864,16.808 -0.000,15.967 -0.000,14.898 L-0.000,1.910 C-0.000,0.840 0.864,-0.000 1.964,-0.000 L16.536,-0.000 C17.636,-0.000 18.500,0.840 18.500,1.910 L18.500,6.494 L16.965,6.494 L16.965,3.820 ZM1.916,1.291 C1.540,1.291 1.289,1.534 1.289,1.899 C1.289,2.264 1.540,2.508 1.916,2.508 C2.291,2.508 2.542,2.264 2.542,1.899 C2.542,1.534 2.291,1.291 1.916,1.291 ZM4.053,1.291 C3.677,1.291 3.426,1.534 3.426,1.899 C3.426,2.264 3.677,2.508 4.053,2.508 C4.429,2.508 4.679,2.264 4.679,1.899 C4.679,1.534 4.429,1.291 4.053,1.291 ZM6.190,1.291 C5.814,1.291 5.564,1.534 5.564,1.899 C5.564,2.264 5.814,2.508 6.190,2.508 C6.566,2.508 6.816,2.264 6.816,1.899 C6.816,1.534 6.566,1.291 6.190,1.291 ZM12.733,11.974 C13.899,10.837 15.791,10.837 16.957,11.974 C17.140,12.153 17.285,12.353 17.410,12.561 L16.429,13.517 C16.382,13.563 16.325,13.588 16.270,13.619 C16.201,13.394 16.083,13.180 15.901,13.003 C15.318,12.435 14.372,12.435 13.789,13.003 L11.677,15.060 C11.095,15.628 11.095,16.551 11.677,17.119 C12.259,17.686 13.207,17.686 13.789,17.119 L14.540,16.386 C15.149,16.617 15.806,16.680 16.445,16.588 L14.845,18.147 C13.678,19.284 11.787,19.284 10.621,18.147 C9.455,17.011 9.455,15.168 10.621,14.031 L12.733,11.974 Z" class="cls-1"/>
</svg>
